X:0936
T:Ca' the Ewes.
M:C
L:1/8
Q:1/4=72
I: ||
Z:Jack Campin * www.campin.me.uk * 2009
K:B Minor % one sharp with accidental C# in the book
  EFB2 AFA2|FEDd cde2|f```BBB AdF2|E2FA B2B||
E|AFBA FFA2|FEDd cde2|f/f/BBB AdF2|EEFA B2B|]

